X:1
T:Auditui meo dabis
T:José Durán [17??- c1791] Edited by Jonathan Goodliffe and Mick Swithinbank
T:From the Música Colonial archive in Guatemala, manuscript 3-051
T:Auditui meo dabis
T:Solo para el niño Don Mariano González
T:Copyright © 
T:Copyright © 
T:Copyright © 
T:Copyright © 
C:José Durán [17??- c1791]
C:Edited by Jonathan Goodliffe and Mick Swithinbank
Z:From the Música Colonial archive
Z:in Guatemala, manuscript 3-051
Z:Copyright ©
%%score 1 [ ( 2 3 ) 4 ]
L:1/8
M:2/4
K:D
V:1 treble nm="Treble" snm="Tr."
V:2 treble nm="Violins" snm="Vlns."
V:3 treble 
V:4 bass nm="Continuo" snm="Cont."
V:1
 z4 | z4 | z4 | z4 | z4 | z4 | z4 | z4 | z4 | z4 | z4 | A A2 B/c/ | dD z2 | (BA/B/) G z | %14
w: |||||||||||Au- di- tu- i|me- o|da- * * bis,|
 (AG/A/) F z | GF/G/ EA | F>E D z | z2 z A/G/ | FF F^G | AE A2 | A/^G/ B/G/ ED | C2 z A | A2 A2 | %23
w: da- * * bis|gau- di- um et lae-|ti- ti- am:|et _|e[x]- sul- ta- bunt|o[s]- sa hu-|mi- * li- * a- *|ta, hu-|mi- li-|
 A4- | A4 | A2 z ^A | B2 B2 | B4- | B4 | B2 z B | =c2 c2 | =c4- | c4 | =c A/G/ F/E/ D/=C/ | %34
w: a-||ta, hu-|mi- li-|a-||ta, hu-|mi- li-|a-||ta, hu- * mi- * li- *|
 B, (B/A/) (^G/F/) (E/D/) | ^C c/B/ ^A/^G/ F/E/ | DB GE | F4 | E4 | D2 z A | d=c/_B/ A^G | AA z2 | %42
w: a- * * * * * *||ta, hu- mi- li-|a-||ta. Au-|di- * * tu- i|me- o|
 G2 F2 | F3 F | E2 z2 | G2 F2 | F3 F | E2 z A | C/4B,/4C3/2 D/4C/4D3/2 | E/4D/4E3/2 F/4E/4F3/2 | %50
w: da- bis|gau- di-|um|et lae-|ti- ti-|am et|ex- * * sul- * *|ta- * * bunt _ _|
 G/>F/G z G | (3F/E/D/ (3B/A/G/ FE | D2 z2 | z4 | z4 | z2 z G | F/D/ B/G/ FE | DA A B/=c/ | %58
w: os- * sa hu-|mi- * * li- * * a- *|ta,|||hu-|mi- * li- * a- *|ta, hu- mi- li- *|
 B G2 A/B/ | A F2 G/A/ | G E2 F/G/ | FD DD | D4 | DD DD | D4- | D4 | D4- | !fermata!D4 |] %68
w: a- * * *|||ta, hu- mi- li-|a-|ta, hu- mi- li-|a-||ta.|_|
V:2
 A A2 B/c/ | d/>c/d z2 | c c2 d/e/ | f/>e/f z/ e/g/>e/ | c/>c/e/>c/ A/>A/B/>F/ | G4 | F/dddd/ | %7
 x/ ffff/ | (3a/f/d/ (3b/g/e/ fe | dD/D/ !//!D2 | D4 | A A2 B/c/ | d z/ D/ F/A/ F/D/ | %13
 z z/ D/ G/B/ G/D/ | z z/ D/ F/A/ F/D/ | B2 c2 | d z/ D/ F/A/ F/A/ | Dd D2 | A2 ^G2 | A2 z C | %20
 D2 B,2 | CE A,a | (a=f) af | (ae) (ae) |!p! (a=f) af | e2 z!f! .b | (bg) (bg) | (bf) (bf) | %28
!p! (bg) (bg) | .f2 z!f! .=c' | (=c'a) (c'a) | (=c'g) (c'g) |!p! (=c'a) (c'a) | g2 A2 | [GB]2 B2 | %35
 [Ac]2 c2 | dB GE | F2 d2- | dc/B/ c/d/B/c/ | dD z2 | =F4 | E (^c/4B/4c/4d/4) e z | G2 F2 | %43
 z/ BBBB/ | A (c/4B/4c/4d/4) e z | G2 F2 | z/ BBBB/ | A (c/4B/4c/4d/4) e z | cC dD | eE fF | %50
 g/e/c/A/ G/E/C/A,/ | z4 | z2 z a | .c (C/4B,/4C/) .d (D/4C/4D/) | .e (E/4D/4E/) .f (F/4E/4F/) | %55
 (3(g/a/b/) e2 g | fB dc | dD/F/ AB/=c/ | d2 =c2- |!p! c2 B2- | B2 A2 | A2 z2 |!pp! z B,A,B, | %63
 A,2 z2 | z B,A,B, | A,B, A,B, | A,2 D2 | !fermata!D4 |] %68
V:3
 x4 | x4 | x4 | x4 | x4 | x4 | x4 | d/dddd/ | x4 | x4 | x4 | x4 | x4 | x4 | x4 | x4 | x4 | x4 | %18
 x4 | x4 | x4 | x4 | x4 | x4 | x4 | x4 | x4 | x4 | x4 | x4 | x4 | x4 | x4 | x4 | x4 | x4 | x4 | %37
 x4 | x4 | x4 | x4 | x4 | x4 | x4 | x4 | x4 | x4 | x4 | x4 | x4 | x4 | x4 | x4 | x4 | x4 | x4 | %56
 x4 | x4 | x4 | x4 | x4 | x4 | x4 | x4 | x4 | x4 | x4 | x4 |] %68
V:4
 A,2 G,2 | F, z/ D,/ F,/A,/F,/D,/ | A,, A,,2 B,,/C,/ | D,/E,/F,/D,/ A,2 | A,, z A,, z | %5
 E,/E,/G,/E,/ C,/C,/E,/C,/ | D,G, F,E, | D,G, F,E, | D,G, A,A,, | D,D, D,D, | D,4 | A,2 G,2 | %12
 F, z/ D,/ F,/A,/F,/D,/ | z z/ D,/ G,/B,/G,/D,/ | z z/ D,/ F,/A,/F,/D,/ | G,2 A,2 | %16
 D, z/ D,/ F,/A,/F,/A,/ | D,D, D,2 | D,2 B,,2 | C,2 A,,2 | B,,2 E,,2 | A,,A, A,,2 | z (A,,D,=F,) | %23
 z (A,,C,E,) | z (A,,D,=F,) | z A, A,, z | z (B,,E,G,) | z (B,,^D,F,) | z (B,,E,G,) | B,,2 B,2 | %30
 z =C,=F,A, | z =C,E,A, | z =C,=F,A, | =C,2 ^F,2 | G,2 ^G,2 | A,2 ^A,2 | B,2 z G, | !//!A,4 | %38
 !//!A,,4 | D,2 z2 | _B,,4 | A,,2 A,,B,, | C,2 D,2 | z ^G,G,G, | A,E, A,,B,, | C,2 D,2 | %46
 z ^G,G,G, | A,E, A,,2 | z A,, B,,B,, | z C, D,D, | z E,C,A,, | D,G, A,A,, | D,D D,2 | %53
 z A,, B,,B,, | z C, D,D, | z E,C,A,, | D,G, A,A,, | D,2 z2 | (G,2 E,2) | (F,2 ^D,2) | (E,2 C,2) | %61
 D,2 z2 | z G,F,G, | F,2 z2 | z G,F,G, | F,G,F,G, | F,2 D,2 | !fermata!D,4 |] %68

